!!!!SEGMENT: pl-kk--kk-i-111--008-001_anonim--deo-gratias-ferijs-2dis.krn
!!!cenid: 18xx:2571
!!!COM: Anonim
!!!COM-rismID:
!!!CDT:
!!!CNT:
!!!GTL: Deo gratias
!!!OTL: Ferijs 2dis
!!!OMV: 001
!!!PDT: 1824
!!!AGN: Sacred
!!!SMS-siglum: PL-Kk
!!!SMS-shelfmark: Kk.I.111
!!!SMS-shelfwork: 008-001 G
!!!SMS-variant:
!!!SMS-altvar:
!!!NIFC-rismSourceID: 1001157685
!!!NIFC-islandoraID: pl-kk:3371
!!!URL-pdf-islandora: https://repozytorium.nifc.pl/islandora/object/pl-kk%3A3371/datastream/PDF/view
!!!URL-scan: https://polish.musicsources.pl/pl/lokalizacje/galeria/rekopisy/5747 @EN{Scan on Polish Music Herritage in Open Access Website} @PL{Skany w portalu Dziedzictwo Muzyki Polskiej w otwartym dostępie}
!!!ONB-nifc: UWAGA: A, T1, T2. Podział na poszególne Deo gratias. A: skan 0003 (m.in)
!!!AIN: 1 alto 2 tenor
!!!key:
**kern	**text	**kern	**text	**kern	**text
*part3	*part3	*part2	*part2	*part1	*part1
*staff3	*staff3	*staff2	*staff2	*staff1	*staff1
*Itenor	*	*Itenor	*	*Ialto	*
*I"Tenore Vagante.	*	*I"Tenore Chorale.	*	*I"Alto.	*
*I'T 2	*	*I'T 1	*	*I'A	*
*clefC4	*	*clefC4	*	*clefC3	*
*k[b-]	*	*k[b-]	*	*k[b-]	*
*F:	*	*F:	*	*F:	*
*M2/1	*	*M2/1	*	*M2/1	*
*met(C|)	*	*met(C|)	*	*	*
=1-	=1-	=1-	=1-	=1-	=1-
!LO:TX:t=P:problem=kreska pseudotaktowa	!	!LO:TX:t=P:problem=kreska pseudotaktowa	!	!	!
*	*	*	*	*met(C|)	*
!	!	!	!	!LO:TX:t=P:problem=kreska pseudotaktowa	!
1A\	De-	1c\	De-	1f\	De-
*	*	*2\right	*	*	*
!	!	!	!	!LO:TX:t=P:problem=kreska pseudotaktowa	!
1.B-X\	-o	2B-\	-o	1g\	-o
!	!	!LO:TX:t=P:problem=kreska pseudotaktowa	!	!	!
.	.	2c\	.	.	.
=2-	=2-	=2-	=2-	=2-	=2-
*2\right	*	*	*	*2\right	*
!	!	!LO:TX:t=P:problem=kreska pseudotaktowa	!	!LO:TX:t=P:problem=2\right&colon; global	!
.	.	1c\	gra-	2.f\	gra-
!LO:TX:t=P:problem=kreska pseudotaktowa	!	!	!	!	!
2A\	.	.	.	.	.
!	!	!	!	!LO:TX:t=P:problem=kreska pseudotaktowa	!
.	.	.	.	4f\	-ti-
2G/	gra-	2Bn\	.	2d\	-as
!LO:TX:t=P:problem=kreska pseudotaktowa	!	!LO:TX:t=P:problem=kreska pseudotaktowa	!	!LO:TX:t=P:problem=kreska pseudotaktowa	!
2G/	-ti-	2c\	-ti-	2g\	De-
=3-	=3-	=3-	=3-	=3-	=3-
4A\	-as	2c\	-as	2f\	-o
4B-\	.	.	.	.	.
1c\	De-	4c\	De-	4f\	.
!	!	!LO:TX:t=P:problem=kreska pseudotaktowa	!	!LO:TX:t=P:problem=kreska pseudotaktowa	!
.	.	4c\	-o	4g\	.
.	.	2.d\	gra-	2.f\	gra-
!LO:TX:t=P:problem=kreska pseudotaktowa	!	!	!	!	!
2Bn\	-o	.	.	.	.
!	!	!LO:TX:t=P:problem=kreska pseudotaktowa	!	!LO:TX:t=P:problem=kreska pseudotaktowa	!
.	.	4d\	-ti-	4f\	-ti-
=4-	=4-	=4-	=4-	=4-	=4-
!	!	!LO:TX:t=P:problem=kreska pseudotaktowa	!	!	!
1.c\	gra-	1G/	-as	2e\	-as
!	!	!	!	!LO:TX:t=P:problem=kreska pseudotaktowa	!
.	.	.	.	2e\	De-
!	!	!LO:TX:t=P:problem=kreska pseudotaktowa	!	!	!
.	.	1r	.	2f\	-o
!LO:TX:t=P:problem=kreska pseudotaktowa	!	!	!	!LO:TX:t=P:problem=kreska pseudotaktowa	!
[2B-X\	-ti-	.	.	2g\	.
=5-	=5-	=5-	=5-	=5-	=5-
!	!	!LO:TX:t=P:problem=kreska pseudotaktowa	!	!	!
2B-\]	as	1c\	De-	1.f\	.
!LO:TX:t=P:problem=kreska pseudotaktowa	!	!	!	!	!
2A\	De-	.	.	.	.
!	!	!LO:TX:t=P:problem=kreska pseudotaktowa	!	!	!
2.G/	.	1d\	-o	.	.
!	!	!	!	!LO:TX:t=P:problem=kreska pseudotaktowa	!
.	.	.	.	2f\	.
!LO:TX:t=P:problem=kreska pseudotaktowa	!	!	!	!	!
4G/	-o	.	.	.	.
=6-	=6-	=6-	=6-	=6-	=6-
2G/	gra-	1.c\	gra-	2e\	gra-
!LO:TX:t=P:problem=kreska pseudotaktowa	!	!	!	!	!
2A/	.	.	.	1f\	.
2.G/	.	.	.	.	.
!	!	!LO:TX:t=P:problem=kreska pseudotaktowa	!	!LO:TX:t=P:problem=kreska pseudotaktowa	!
.	.	2c\	-ti-	2e\	-ti-
!LO:TX:t=P:problem=kreska pseudotaktowa	!	!	!	!	!
4G/	-ti-	.	.	.	.
=7-	=7-	=7-	=7-	=7-	=7-
0A\;	-as.	0c\;	-as.	0f\;	-as
==	==	==	==	==	==
*-	*-	*-	*-	*-	*-
!!!system-decoration: [(s1,s2,s3)]
!!!EED: Andrzej Borzym
!!!EEV: 2021-08-04
!!!ENC: Tomasz Grochalski
!!!END: 2021-07-10
